X:113
T: NUR LUSTIG IHR BRUEDER
N: E1167
O: Europa, Mitteleuropa, Deutschland; Frankreich, Elsass
R: Trink -, Zech - Lied
M: 6/8
L: 1/16
K: G
D2 | D2G2G2G2G2F2 | F2E2E2E4
E2 | G2F2E2G2F2E2 | E3DD2D2D2
D2 | D3cc2c2c2d2 | d3BB2B4
G2 | A2A2A2c2B2A2 | A2G2G2G4
D2 | D3cc2c2c2d2 | d3BB2B4
G2 | A2A2A2c2B2A2 | A2G2G2G4

